X: 37083
T: Silver Strand, The
R: reel
M: 4/4
K: Gmajor
GGBd BGAG|EGDE GG (3Bcd|eedg edgd|egdB Aaaf|
gfgf eage|aaba gedB|Beeg dB~B2|AAGA BGG2:|
Bd (3ddB ABGD|(3DDE AG EGDA|(3Bcd de dB~B2|gedB ABcA|
dedB ABGD|(3DDE AD EGDC|B,DGA BddB|AAGA BGG2:|

